X:15
T:Rogativa de La Puebla de Castro
H:ROGATIVA DE AGUA
A:Somontano de Barbastro (Huesca) Spain
O:La Puebla de Castro
M:C
L:1/8
Q:1/4=63
K:Gm
 G2^FG B2GB|A2D6|G2^FG B2GB|A2D6
|:d2dd dBdf|ed c6|B2Bc A2BA|G-^F G6:|
